li/religion-pentagram.svg

<svg role="img" focusable="false" aria-hidden="true" xmlns="http://www.w3.org/2000/svg" viewBox="0 0 14 14" height="1em" width="1em">
  <path d="m 7.0000478,1.370505 0,0.37048 c 1.453452,1.7e-4 2.765775,0.58812 3.7186532,1.54033 0.952184,0.95283 1.540114,2.26522 1.540257,3.71872 -1.43e-4,1.45338 -0.588073,2.76578 -1.540257,3.71865 -0.9528782,0.95219 -2.2652012,1.54012 -3.7186532,1.54033 -1.4533558,-2.1e-4 -2.7658947,-0.58814 -3.7187244,-1.54033 -0.9522078,-0.95287 -1.5401617,-2.26527 -1.5403052,-3.71865 1.435e-4,-1.45343 0.5880974,-2.76582 1.5403052,-3.71872 0.9528297,-0.95228 2.2652968,-1.54024 3.7187244,-1.54033 l 0,-0.37048 0,-0.37049 c -1.6556234,-1.7003e-4 -3.1579676,0.67217 -4.2427161,1.7574 -1.0852031,1.08456 -1.75757071,2.5869 -1.7573315,4.24262 -1.4351e-4,1.65555 0.6721762,3.15797 1.7573315,4.24265 1.0846289,1.08522 2.5870927,1.75759 4.2427161,1.7573 1.655624,1.5e-4 3.1579682,-0.67215 4.2426452,-1.7573 C 12.327991,10.158005 13.000287,8.655615 13,7.000035 13.000287,5.344315 12.327991,3.841975 11.242693,2.757395 10.158016,1.672185 8.6556958,0.99982497 7.0000478,1.000015 l 0,0.37049 0,0 z m -5.1806437,3.89019 0,0.37047 9.2209249,0 -6.5372671,4.74965 2.4969859,-7.68506 2.496986,7.68506 -7.4598619,-5.41994 -0.2177678,0.29982 0,0.37047 0,-0.37047 -0.2177678,0.29964 8.3824565,6.09018 0.5700382,-0.41436 -3.2017892,-9.85388 -0.704683,0 -3.20167,9.85388 0.5701334,0.41436 8.3822898,-6.09018 -0.21772,-0.67016 -10.3612879,0 -0.2177678,0.67016 z"/>
</svg>

<svg aria-hidden="true" xmlns="http://www.w3.org/2000/svg" viewBox="0 0 14 14" height="1em" width="1em">
  <path d="M7 1.37v.371c1.453 0 2.766.588 3.719 1.54A5.24 5.24 0 0 1 12.259 7a5.241 5.241 0 0 1-1.54 3.719A5.241 5.241 0 0 1 7 12.259a5.241 5.241 0 0 1-3.719-1.54A5.241 5.241 0 0 1 1.741 7c0-1.453.588-2.766 1.54-3.719A5.24 5.24 0 0 1 7 1.741V1a5.983 5.983 0 0 0-4.243 1.757A5.982 5.982 0 0 0 1 7c0 1.656.672 3.158 1.757 4.243A5.983 5.983 0 0 0 7 13a5.983 5.983 0 0 0 4.243-1.757A5.982 5.982 0 0 0 13 7a5.982 5.982 0 0 0-1.757-4.243A5.983 5.983 0 0 0 7 1v.37zM1.82 5.26v.371h9.22l-6.537 4.75L7 2.696l2.497 7.685-7.46-5.42-.218.3v.37-.37l-.217.3 8.382 6.09.57-.415-3.202-9.854h-.704l-3.202 9.854.57.415 8.382-6.09-.217-.67H1.819l-.217.67z"/>
</svg>
